X: 1
T: Angeline the Baker
R: reel
N: The parts may be played in either order.
Z: 2010 John Chambers <jc:trillian.mit.edu>
S: printed MS of unknown origin
F: http://www.nigelgatherer.com/tunes/tab/tab1/angel.html
M: C|
L: 1/8
K: D
|: "D"a2f2 e2de | fde2  d4  | "D"a2f2 e2d2 |  "G"B4 B4 \
|  "D"a2f2 e2de | fde2  d3e | "D"f2e2 d2B2 | "A7"A4 A4 :|
|: "D"A2B2 d3A  | B2d2- d4  | "D"A2B2 d2A2 |  "G"B4 B4 \
|  "D"A2B2 d3e  | fde2  d3e | "D"f2e2 d2B2 | "A7"A4 A4 :|
% %text The parts are played in either order.

%%sep 1 1 500

